OFDR/img/icons/check.svg

<svg width="8" height="7" viewBox="0 0 8 7" fill="none" xmlns="http://www.w3.org/2000/svg">
<path d="M6.29151 1.13861L3.02781 4.85799L1.70852 3.35474C1.54639 3.17019 1.28376 3.17008 1.12164 3.35485C0.959453 3.53969 0.959453 3.83904 1.12164 4.02381L2.73442 5.86158C2.81547 5.95384 2.92164 6 3.02781 6C3.13399 6 3.24044 5.95384 3.32146 5.86143C3.32171 5.86104 3.3219 5.86064 3.32231 5.86017L6.87836 1.80746C7.04055 1.6228 7.04055 1.32323 6.87836 1.13857C6.71627 0.953803 6.45345 0.953803 6.29151 1.13861Z" fill="#53B43B" stroke="#53B43B" stroke-width="0.5"/>
</svg>

<svg width="8" height="7" fill="none" xmlns="http://www.w3.org/2000/svg"><path d="M6.292 1.139L3.028 4.858l-1.32-1.503a.38.38 0 00-.586 0 .52.52 0 000 .669l1.612 1.838A.39.39 0 003.028 6a.39.39 0 00.293-.139h.001l3.556-4.054a.52.52 0 000-.668.38.38 0 00-.586 0z" fill="#53B43B" stroke="#53B43B" stroke-width=".5"/></svg>
